app/medias/svg/mobile.svg

<?xml version="1.0" encoding="UTF-8"?>
<svg xmlns="http://www.w3.org/2000/svg" xmlns:xlink="http://www.w3.org/1999/xlink" width="18" height="24" viewBox="0 0 18 24">
<path fill="none" stroke-width="2" stroke-linecap="round" stroke-linejoin="round" stroke="rgb(0%, 0%, 0%)" stroke-opacity="1" stroke-miterlimit="4" d="M 0.999566 14.000651 L 13.000434 14.000651 M 0.999566 4.000651 L 13.000434 4.000651 M 6.498698 16.500651 L 7.501302 16.500651 M 1.999132 0.999349 L 12.000868 0.999349 C 12.550781 0.999349 13.000434 1.448568 13.000434 1.998698 L 13.000434 18.001302 C 13.000434 18.551432 12.550781 19.000651 12.000868 19.000651 L 1.999132 19.000651 C 1.449219 19.000651 0.999566 18.551432 0.999566 18.001302 L 0.999566 1.998698 C 0.999566 1.448568 1.449219 0.999349 1.999132 0.999349 Z M 1.999132 0.999349 " transform="matrix(1.285714, 0, 0, 1.2, 0, 0)"/>
</svg>

<svg aria-hidden="true" xmlns="http://www.w3.org/2000/svg" fill="none" viewBox="0 0 14 20">
    <path stroke="currentColor" stroke-linecap="round" stroke-linejoin="round" stroke-width="2"
        d="M1 14h12M1 4h12M6.5 16.5h1M2 1h10a1 1 0 0 1 1 1v16a1 1 0 0 1-1 1H2a1 1 0 0 1-1-1V2a1 1 0 0 1 1-1Z"></path>
</svg>
